X:103
T:Breton Dance Tune
M:4/4
L:1/4
K:G
"Em"EBBA/B/|cB A/G/F/G/|"Am"AABA|"C"G/F/E/F/ "D"GF|"Em"EBBA/B/|cBA/G/F/G/|"Am"AABA|"D"G/F/E/F/"Em"E2:|!
"Em"ee"D"f g/f/|"C"ee"Bm"f/e/f/g/|"Em"abba|"C"g/f/e/f/"D"gf|"Em"ee"D"f

g/f/|"C"ee"Bm"f/e/f/g/|"Em"abba|"D"g/f/e/f/"Em"e2:|

